assets/images/landing/aromatherapy-icon.svg

<svg width="68" height="100" viewBox="0 0 68 100" fill="none" xmlns="http://www.w3.org/2000/svg">
<path d="M56.2337 42.8572H12.3493C11.1856 42.8572 10.0688 42.3555 9.24612 41.4626C8.42344 40.5698 7.96094 39.3579 7.96094 38.0954V28.5716C7.96094 27.695 8.61594 26.9843 9.42375 26.9843H59.1594C59.5473 26.9843 59.9195 27.1515 60.1938 27.4491C60.4681 27.7467 60.6222 28.1506 60.6222 28.5716V38.0954C60.6222 39.3581 60.1599 40.5699 59.337 41.4626C58.5142 42.3553 57.3974 42.8572 56.2338 42.8572H56.2337ZM10.8865 30.1588V38.0953C10.8865 38.5162 11.0406 38.9201 11.3149 39.2177C11.5892 39.5153 11.9614 39.6826 12.3493 39.6826H56.2337C56.6216 39.6826 56.9938 39.5153 57.2681 39.2177C57.5424 38.9201 57.6965 38.5162 57.6965 38.0953V30.1588H10.8865Z" fill="#424B25"/>
<path d="M56.2337 100H12.3493C11.8275 99.9986 11.3462 99.6967 11.0857 99.2064C10.6599 98.4127 0.646865 79.6436 0.646865 66.6658C0.637069 62.8697 1.58659 59.1431 3.3916 55.8912C5.1973 52.6393 7.78924 49.9862 10.8866 48.2212V41.269H13.8122V49.2055C13.8122 49.8404 13.4635 50.4144 12.926 50.6645C10.1323 52.0995 7.77088 54.3643 6.11548 57.1966C4.46003 60.0289 3.57837 63.3119 3.57252 66.6658C3.57252 77.3724 11.3169 93.142 13.2023 96.8245H55.3815C57.2668 93.1418 65.0113 77.3615 65.0113 66.6658C65.0048 63.3105 64.1219 60.026 62.4652 57.1937C60.8078 54.3614 58.4444 52.0965 55.6493 50.6623C55.1158 50.4101 54.771 49.8375 54.7717 49.2054V41.2689H57.6973V48.2211C60.7946 49.9863 63.3865 52.6393 65.1922 55.8911C66.9973 59.143 67.9468 62.8696 67.937 66.6657C67.937 79.6433 57.9238 98.4118 57.4982 99.2063C57.2376 99.6967 56.7563 99.9986 56.2345 100L56.2337 100Z" fill="#424B25"/>
<path d="M51.8452 92.0635H16.7377C16.1225 92.0635 15.5733 91.6461 15.3624 91.019C15.1286 90.2955 9.42371 73.2015 9.42371 65.0797C9.43938 62.4535 10.2929 59.9138 11.8399 57.8937C13.387 55.8736 15.5316 54.498 17.908 54.0005C18.004 53.9786 18.102 53.968 18.2006 53.9687H50.3825C50.4811 53.968 50.579 53.9786 50.675 54.0005C53.0515 54.498 55.196 55.8734 56.7431 57.8937C58.2902 59.914 59.1436 62.4537 59.1594 65.0797C59.1594 73.2018 53.4544 90.2952 53.2207 91.019C53.0097 91.6461 52.4605 92.0635 51.8454 92.0635H51.8452ZM17.7725 88.8889H50.8104C52.0499 85.0396 56.2333 71.559 56.2333 65.0793C56.2196 63.2099 55.6156 61.4022 54.5211 59.9575C53.4272 58.5134 51.9103 57.5198 50.2228 57.1428H18.3635C16.6807 57.5304 15.1689 58.5268 14.0757 59.9688C12.9832 61.4108 12.3738 63.2128 12.3484 65.0793C12.3484 71.559 16.5317 85.0394 17.7714 88.8889H17.7725Z" fill="#424B25"/>
<path d="M43.0683 92.0635H25.5146C24.7068 92.0635 24.0518 91.3528 24.0518 90.4762V80.9524C24.0518 80.0759 24.7068 79.3651 25.5146 79.3651H43.0683C43.4562 79.3651 43.8285 79.5323 44.1027 79.83C44.377 80.1276 44.5311 80.5315 44.5311 80.9524V90.4762C44.5311 90.8971 44.377 91.3011 44.1027 91.5987C43.8285 91.8963 43.4562 92.0635 43.0683 92.0635ZM26.9774 88.8889H41.6055V82.5397H26.9774V88.8889Z" fill="#424B25"/>
<path d="M34.2915 76.1905C32.7398 76.1905 31.2515 75.5216 30.1538 74.3311C29.0567 73.1399 28.4402 71.5249 28.4402 69.8413C28.4402 66.7603 32.4074 61.8063 33.2028 60.8446C33.4875 60.5229 33.8807 60.3408 34.2914 60.3408C34.7022 60.3408 35.0953 60.5229 35.38 60.8446C36.1754 61.8062 40.1426 66.7601 40.1426 69.8413C40.1426 71.5249 39.5261 73.14 38.429 74.3311C37.3313 75.5216 35.843 76.1905 34.2914 76.1905H34.2915ZM34.2915 64.3637C32.7392 66.4684 31.3658 68.8301 31.3658 69.8413C31.3658 70.9758 31.9235 72.0238 32.8287 72.5907C33.7338 73.1576 34.8492 73.1576 35.7543 72.5907C36.6594 72.0238 37.2171 70.9757 37.2171 69.8413C37.2171 68.857 35.8451 66.4775 34.2915 64.3637Z" fill="#424B25"/>
<path d="M32.8287 74.6031H35.7543V80.9524H32.8287V74.6031Z" fill="#424B25"/>
<path d="M26.9774 19.0476H24.0518C24.0518 18.1555 23.7344 17.7778 23.0173 16.9956C21.821 15.9468 21.1262 14.3673 21.1262 12.6984C21.1262 11.0295 21.8211 9.45016 23.0173 8.40127C23.7344 7.61896 24.0518 7.24127 24.0518 6.34921C24.0518 5.45714 23.7344 5.07936 23.0173 4.29714C21.8353 3.23634 21.1431 1.66458 21.1262 0H24.0518C24.0518 0.892154 24.3692 1.26984 25.0863 2.05206C26.2683 3.11287 26.9605 4.68463 26.9774 6.34921C26.9604 8.01375 26.2682 9.58549 25.0863 10.6463C24.3692 11.4287 24.0518 11.8063 24.0518 12.6984C24.0518 13.5905 24.3692 13.9683 25.0863 14.7505C26.2683 15.8113 26.9605 17.383 26.9774 19.0476Z" fill="#424B25"/>
<path d="M37.217 19.0476H34.2914C34.2914 18.1555 33.974 17.7778 33.257 16.9956C32.0606 15.9468 31.3659 14.3673 31.3659 12.6984C31.3659 11.0295 32.0607 9.45016 33.257 8.40127C33.974 7.61896 34.2914 7.24127 34.2914 6.34921C34.2914 5.45714 33.974 5.07936 33.257 4.29714C32.075 3.23634 31.3828 1.66458 31.3659 0H34.2915C34.2915 0.892154 34.6089 1.26984 35.3259 2.05206C36.5079 3.11287 37.2002 4.68463 37.217 6.34921C37.2001 8.01375 36.5078 9.58549 35.3259 10.6463C34.6089 11.4287 34.2915 11.8063 34.2915 12.6984C34.2915 13.5905 34.6089 13.9683 35.3259 14.7505C36.5079 15.8113 37.2002 17.383 37.217 19.0476Z" fill="#424B25"/>
<path d="M47.4568 19.0476H44.5311C44.5311 18.1555 44.2138 17.7778 43.4967 16.9956C42.3004 15.9468 41.6056 14.3673 41.6056 12.6984C41.6056 11.0295 42.3004 9.45016 43.4967 8.40127C44.2138 7.61896 44.5311 7.24127 44.5311 6.34921C44.5311 5.45714 44.2138 5.07936 43.4967 4.29714C42.3147 3.23634 41.6225 1.66458 41.6056 0H44.5312C44.5312 0.892154 44.8486 1.26984 45.5656 2.05206C46.7476 3.11287 47.4399 4.68463 47.4568 6.34921C47.4398 8.01375 46.7476 9.58549 45.5656 10.6463C44.8486 11.4287 44.5312 11.8063 44.5312 12.6984C44.5312 13.5905 44.8486 13.9683 45.5656 14.7505C46.7476 15.8113 47.4399 17.383 47.4568 19.0476Z" fill="#424B25"/>
<path d="M9.42365 33.3333H54.7708V36.5079H9.42365V33.3333Z" fill="#424B25"/>
</svg>

<svg width="68" height="100" fill="none" xmlns="http://www.w3.org/2000/svg"><path d="M56.234 42.857H12.349c-1.163 0-2.28-.502-3.103-1.394-.823-.893-1.285-2.105-1.285-3.368v-9.523c0-.877.655-1.588 1.463-1.588h49.735c.388 0 .76.167 1.035.465.274.298.428.702.428 1.123v9.523c0 1.263-.462 2.475-1.285 3.368-.823.892-1.94 1.394-3.103 1.394zM10.886 30.16v7.936c0 .421.155.825.429 1.123.274.297.646.465 1.034.465h43.885c.388 0 .76-.168 1.034-.465.274-.298.428-.702.428-1.123V30.16h-46.81z" fill="#424B25"/><path d="M56.234 100H12.349c-.521-.001-1.003-.303-1.263-.794-.426-.793-10.44-19.562-10.44-32.54-.009-3.796.94-7.523 2.746-10.775 1.805-3.252 4.397-5.905 7.495-7.67V41.27h2.925v7.937c0 .634-.348 1.208-.886 1.458-2.794 1.435-5.155 3.7-6.81 6.533-1.656 2.832-2.538 6.115-2.543 9.469 0 10.706 7.744 26.476 9.63 30.159H55.38c1.886-3.683 9.63-19.463 9.63-30.16-.006-3.355-.89-6.639-2.546-9.471-1.657-2.833-4.02-5.098-6.816-6.532-.533-.252-.878-.825-.877-1.457V41.27h2.925v6.952c3.098 1.765 5.69 4.418 7.495 7.67 1.805 3.252 2.755 6.979 2.745 10.775 0 12.977-10.013 31.746-10.439 32.54-.26.49-.742.793-1.264.794z" fill="#424B25"/><path d="M51.845 92.064H16.738c-.616 0-1.165-.418-1.376-1.045-.233-.724-5.938-17.818-5.938-25.94.015-2.625.869-5.165 2.416-7.185 1.547-2.02 3.692-3.396 6.068-3.893.096-.022.194-.033.293-.032h32.181c.1-.001.197.01.293.032 2.377.497 4.521 1.872 6.068 3.893 1.547 2.02 2.4 4.56 2.416 7.186 0 8.122-5.705 25.215-5.938 25.939-.211.627-.76 1.044-1.376 1.044zm-34.072-3.175H50.81c1.24-3.85 5.423-17.33 5.423-23.81-.013-1.87-.617-3.677-1.712-5.121-1.094-1.445-2.61-2.438-4.298-2.815h-31.86c-1.682.387-3.194 1.384-4.287 2.826-1.093 1.442-1.702 3.244-1.728 5.11 0 6.48 4.184 19.96 5.423 23.81h.002z" fill="#424B25"/><path d="M43.068 92.064H25.515c-.808 0-1.463-.711-1.463-1.588v-9.524c0-.876.655-1.587 1.463-1.587h17.553c.388 0 .76.167 1.035.465.274.298.428.701.428 1.122v9.524c0 .421-.154.825-.428 1.123a1.407 1.407 0 0 1-1.035.465zm-16.09-3.175h14.627v-6.35H26.977v6.35zM34.291 76.19c-1.551 0-3.04-.668-4.137-1.859-1.097-1.191-1.714-2.806-1.714-4.49 0-3.08 3.967-8.035 4.763-8.996a1.455 1.455 0 0 1 1.088-.504c.411 0 .804.182 1.089.504.795.961 4.763 5.915 4.763 8.996 0 1.684-.617 3.299-1.714 4.49-1.098 1.19-2.586 1.86-4.138 1.86zm0-11.826c-1.552 2.104-2.925 4.466-2.925 5.477 0 1.135.558 2.183 1.463 2.75.905.567 2.02.567 2.925 0 .905-.567 1.463-1.615 1.463-2.75 0-.984-1.372-3.363-2.925-5.477z" fill="#424B25"/><path d="M32.829 74.603h2.925v6.35H32.83v-6.35zM26.977 19.048h-2.925c0-.892-.318-1.27-1.035-2.052-1.196-1.05-1.89-2.629-1.89-4.298 0-1.668.694-3.248 1.89-4.297.717-.782 1.035-1.16 1.035-2.052 0-.892-.318-1.27-1.035-2.052-1.182-1.06-1.874-2.632-1.89-4.297h2.925c0 .892.317 1.27 1.034 2.052 1.182 1.06 1.875 2.633 1.891 4.297-.017 1.665-.709 3.236-1.89 4.297-.718.783-1.035 1.16-1.035 2.052 0 .893.317 1.27 1.034 2.053 1.182 1.06 1.875 2.632 1.891 4.297zM37.217 19.048h-2.926c0-.892-.317-1.27-1.034-2.052-1.196-1.05-1.891-2.629-1.891-4.298 0-1.668.695-3.248 1.891-4.297.717-.782 1.034-1.16 1.034-2.052 0-.892-.317-1.27-1.034-2.052-1.182-1.06-1.874-2.632-1.891-4.297h2.925c0 .892.318 1.27 1.035 2.052 1.182 1.06 1.874 2.633 1.891 4.297-.017 1.665-.71 3.236-1.891 4.297-.717.783-1.035 1.16-1.035 2.052 0 .893.318 1.27 1.035 2.053 1.182 1.06 1.874 2.632 1.891 4.297zM47.457 19.048H44.53c0-.892-.317-1.27-1.034-2.052-1.197-1.05-1.891-2.629-1.891-4.298 0-1.668.694-3.248 1.89-4.297.718-.782 1.035-1.16 1.035-2.052 0-.892-.317-1.27-1.034-2.052-1.182-1.06-1.874-2.632-1.891-4.297h2.925c0 .892.318 1.27 1.035 2.052 1.182 1.06 1.874 2.633 1.89 4.297-.016 1.665-.708 3.236-1.89 4.297-.717.783-1.035 1.16-1.035 2.052 0 .893.318 1.27 1.035 2.053 1.182 1.06 1.874 2.632 1.89 4.297zM9.424 33.333H54.77v3.175H9.424v-3.175z" fill="#424B25"/></svg>
